X:1
T:Wragg’s Lesson the 7th.2voices. RH.001
R:waltz
S:Rev.R.Harrison’s MS,c1815,Cumbria
O:England
A:Temple Sowerby,Cumbria
Z:vmp.Simon Wilson. Review PJH, 2008.
M:3/4
L:1/8
Q:1/4=100
K:D
[V:1]|:d2dAde|f2fdfg|a2a2b2|(ag)(fe)d2|\
d2dAde|f2fdfg|a2(ba)(gf)|{f}e6:|
[V:2]|:z6|d2dAde|f2f2g2|fedAF2|\
z6|d2dAde|f2gfed|{d}c6:|
%
[V:1]|:e2e2d2|(3cdc (3BcB A2|a2a2g2|(3fgf (3efe d2|\
dAFDFA|dfad’af|(3efg f2e2|d6:|
[V:2]|:(3cdc (3BcB A2|e2e2a2|(3fgf (3efe d2|a2a2d’2|\
a6|G2fafd|(3cde d2A2|F6:|

